dist/files/product_fund_settlement_logo.svg

<svg width="142" height="142" viewBox="0 0 142 142" fill="none" xmlns="http://www.w3.org/2000/svg">
<g filter="url(#filter0_d_5335_2928)">
<circle cx="67" cy="68" r="59" fill="#152968"/>
</g>
<mask id="mask0_5335_2928" style="mask-type:luminance" maskUnits="userSpaceOnUse" x="28" y="28" width="78" height="81">
<path d="M28 28H106V108.373H28V28Z" fill="white"/>
</mask>
<g mask="url(#mask0_5335_2928)">
<path fill-rule="evenodd" clip-rule="evenodd" d="M104.993 77.624C104.256 76.3805 101.229 72.6898 93.2354 77.3911L89.3002 79.7059C90.0005 77.941 90.4232 76.0858 90.5423 74.1995C90.7758 70.4767 89.8728 66.7773 87.8567 63.2018C85.6833 59.3489 82.3735 54.9956 77.5108 49.6057C78.8512 48.8725 79.7628 47.4396 79.7628 45.7961C79.7628 43.6089 78.1497 41.797 76.0623 41.5072L78.9654 38.5745C80.6695 36.8542 80.6707 34.0528 78.9654 32.3313C77.5231 30.8748 75.2293 30.6259 73.5118 31.7393C73.3975 31.8136 73.2992 31.8223 73.1739 31.7702C73.0486 31.717 72.9859 31.6414 72.9565 31.5077C72.5203 29.4927 70.7241 28.0312 68.6847 28.0312C66.6452 28.0312 64.8491 29.4927 64.4142 31.5077C64.3847 31.6414 64.322 31.7182 64.1967 31.7702C64.0714 31.8223 63.9731 31.8136 63.8588 31.7393C62.1413 30.6259 59.8475 30.8748 58.4052 32.3313C57.582 33.1635 57.1287 34.272 57.1287 35.4535C57.1287 36.635 57.582 37.7435 58.4052 38.5745L61.3083 41.5072C59.2209 41.797 57.6078 43.6089 57.6078 45.7961C57.6078 47.4396 58.5194 48.8725 59.8586 49.6057C54.9971 54.9943 51.6873 59.3489 49.5139 63.203C46.8946 67.8473 46.1476 72.7468 47.332 77.4369L39.3585 82.0986L38.3646 80.3251C37.4628 78.7163 35.4344 78.1491 33.841 79.0594L29.8825 81.3208C28.2903 82.2311 27.7276 84.2808 28.6293 85.8896L40.2652 106.654C40.8746 107.741 42.0012 108.355 43.1597 108.355C43.7126 108.355 44.2741 108.215 44.7888 107.92L48.7461 105.658C50.3396 104.747 50.9022 102.697 50.0005 101.088L48.7965 98.9408L51.1996 97.5388L69.2695 102.428C70.2892 102.705 71.2893 102.843 72.2697 102.843C74.2219 102.843 76.0881 102.295 77.8437 101.202L103.442 85.284C105.772 83.835 106.511 80.1839 104.993 77.624ZM59.6141 35.4535C59.6141 34.942 59.8082 34.4639 60.162 34.1073C60.7849 33.4781 61.7739 33.3716 62.516 33.8521C63.3133 34.3686 64.2729 34.4553 65.1476 34.0887C66.0224 33.7233 66.6403 32.9765 66.8418 32.0427C67.0298 31.1733 67.805 30.5417 68.6847 30.5404C69.5644 30.5404 70.3396 31.1721 70.5276 32.0427C70.7303 32.9778 71.3482 33.7233 72.223 34.0887C73.0977 34.4553 74.0573 34.3686 74.8534 33.8521C75.5954 33.3704 76.5857 33.4781 77.2086 34.1073C77.5624 34.4639 77.7565 34.942 77.7565 35.4535C77.7565 35.965 77.5624 36.443 77.2086 36.7997L72.5879 41.4664H64.7827L60.162 36.7997C59.8082 36.443 59.6141 35.965 59.6141 35.4535ZM61.8943 43.9755H75.4763C76.469 43.9755 77.2774 44.7929 77.2774 45.7961C77.2774 46.7993 76.469 47.6154 75.4763 47.6154H61.8943C60.9004 47.6154 60.0932 46.7993 60.0932 45.7949C60.0932 44.7929 60.9016 43.9755 61.8943 43.9755ZM51.6738 64.4452C53.9073 60.4821 57.4383 55.9232 62.7617 50.1246H74.6089C79.9323 55.9232 83.4633 60.4833 85.6968 64.4452C89.0754 70.437 88.8788 76.8685 85.171 82.1345L79.1301 85.689C78.415 86.1088 77.6889 86.4048 76.9297 86.5795C77.2123 86.1249 77.4346 85.6097 77.5857 85.04C78.3057 82.3265 76.7085 79.4928 73.9492 78.59C73.8963 78.5726 73.8423 78.559 73.787 78.5491C73.4995 78.4971 73.212 78.4401 72.9245 78.3807C73.3717 78.0933 73.7661 77.7602 74.088 77.3837C74.921 76.4102 75.276 75.1903 75.1163 73.854C74.6249 69.772 70.2732 69.0499 68.8432 68.8134C65.2336 68.2139 65.1599 66.7055 65.1329 66.137C65.0542 64.4935 66.3836 63.5969 67.6527 63.3058C67.9512 63.2377 68.2608 63.1981 68.5753 63.1894C68.6196 63.1919 68.6638 63.1906 68.7068 63.1882C70.1467 63.1931 71.6357 63.873 72.3311 65.5438C72.5965 66.1828 73.325 66.4838 73.9577 66.215C74.5905 65.9463 74.8878 65.2106 74.6224 64.5716C73.6715 62.2841 71.7955 61.1236 69.8703 60.7892V59.5842C69.8703 58.8919 69.3137 58.3296 68.6269 58.3296C67.9414 58.3296 67.3849 58.8919 67.3849 59.5842V60.8004C67.2903 60.8177 67.1969 60.8363 67.1035 60.8586C64.3159 61.4964 62.5258 63.6675 62.6511 66.2596C62.7408 68.131 63.8183 70.5237 68.4402 71.2903C71.9343 71.87 72.5252 73.127 72.6493 74.1574C72.7243 74.7891 72.5805 75.3068 72.2083 75.7415C70.9354 77.2276 68.3345 77.354 66.6403 76.6356C65.8614 76.305 64.881 75.6312 64.5481 74.2825C64.3822 73.61 63.7077 73.2013 63.0418 73.3685C62.3759 73.537 61.9705 74.2181 62.1364 74.8906C62.1499 74.9451 62.1659 74.9996 62.1806 75.0529C61.1879 74.6912 60.253 74.3531 59.4458 74.0881C55.8387 72.9066 52.5756 74.3705 49.8604 75.9582L49.5827 76.1204C48.8026 72.2799 49.5127 68.2759 51.6738 64.4452ZM47.5224 103.474L43.5639 105.735C43.1708 105.961 42.6499 105.814 42.4275 105.417L30.7916 84.6536C30.5693 84.2561 30.713 83.7297 31.1074 83.5055L35.0646 81.2428C35.4541 81.0211 35.9787 81.1636 36.2011 81.5611L47.8369 102.326C48.0593 102.722 47.9156 103.248 47.5224 103.474ZM102.139 83.1464L76.5415 99.0659C74.5082 100.329 72.2795 100.645 69.9133 100.005L51.3458 94.9801C51.0263 94.8934 50.6872 94.9392 50.4022 95.1052L47.5716 96.7561L40.5822 84.2833L51.1062 78.1305C53.4601 76.7533 56.0082 75.6003 58.6804 76.4759C59.5379 76.757 60.5257 77.1174 61.6695 77.5348C64.9498 78.7336 69.0262 80.2211 73.2562 81.0026C74.7354 81.524 75.5623 82.9668 75.1851 84.3898C74.6888 86.2612 73.1444 86.494 71.9171 86.3516C69.8383 85.9206 67.864 85.3509 65.7742 84.749C64.784 84.4629 63.7593 84.1669 62.7064 83.882C62.043 83.7037 61.3624 84.1 61.1842 84.77C61.0073 85.4388 61.4004 86.1274 62.0627 86.307C63.0959 86.5869 64.1107 86.8792 65.0923 87.1615C67.2448 87.7833 69.2781 88.3691 71.4674 88.8211C71.476 88.8236 73.271 89.1184 73.271 89.1184C75.8915 89.5419 78.2172 89.1295 80.3808 87.8576L94.4861 79.5597C98.5514 77.1694 101.682 76.9279 102.86 78.9132C103.672 80.283 103.308 82.4194 102.139 83.1464ZM36.217 85.2617C36.3301 86.0407 35.7956 86.7652 35.0241 86.8804C34.2513 86.9943 33.5338 86.4544 33.4208 85.6741C33.3078 84.8939 33.8422 84.1694 34.615 84.0554C35.3865 83.9415 36.104 84.4815 36.217 85.2617Z" fill="white"/>
</g>
<defs>
<filter id="filter0_d_5335_2928" x="0.6" y="0.6" width="140.8" height="140.8" filterUnits="userSpaceOnUse" color-interpolation-filters="sRGB">
<feFlood flood-opacity="0" result="BackgroundImageFix"/>
<feColorMatrix in="SourceAlpha" type="matrix" values="0 0 0 0 0 0 0 0 0 0 0 0 0 0 0 0 0 0 127 0" result="hardAlpha"/>
<feOffset dx="4" dy="3"/>
<feGaussianBlur stdDeviation="5.7"/>
<feComposite in2="hardAlpha" operator="out"/>
<feColorMatrix type="matrix" values="0 0 0 0 0.128333 0 0 0 0 0.119778 0 0 0 0 0.119778 0 0 0 0.25 0"/>
<feBlend mode="normal" in2="BackgroundImageFix" result="effect1_dropShadow_5335_2928"/>
<feBlend mode="normal" in="SourceGraphic" in2="effect1_dropShadow_5335_2928" result="shape"/>
</filter>
</defs>
</svg>

<svg xmlns="http://www.w3.org/2000/svg" width="142" height="142" fill="none"><g filter="url(#a)"><circle cx="67" cy="68" r="59" fill="#152968"/></g><mask id="b" width="78" height="81" x="28" y="28" maskUnits="userSpaceOnUse" style="mask-type:luminance"><path fill="#fff" d="M28 28h78v80.373H28V28Z"/></mask><g mask="url(#b)"><path fill="#fff" fill-rule="evenodd" d="M104.993 77.624c-.737-1.243-3.764-4.934-11.758-.233L89.3 79.706c.7-1.765 1.123-3.62 1.242-5.507.234-3.722-.67-7.422-2.685-10.997-2.174-3.853-5.483-8.206-10.346-13.596a4.34 4.34 0 0 0 2.252-3.81c0-2.187-1.613-3.999-3.7-4.289l2.902-2.932a4.45 4.45 0 0 0 0-6.244 4.366 4.366 0 0 0-5.453-.592.326.326 0 0 1-.338.031.333.333 0 0 1-.218-.262c-.436-2.015-2.232-3.477-4.271-3.477-2.04 0-3.836 1.462-4.27 3.477a.331.331 0 0 1-.218.262.326.326 0 0 1-.338-.03 4.366 4.366 0 0 0-5.454.591 4.41 4.41 0 0 0-1.276 3.122c0 1.182.453 2.29 1.276 3.121l2.903 2.933c-2.087.29-3.7 2.102-3.7 4.29a4.34 4.34 0 0 0 2.25 3.809c-4.86 5.388-8.17 9.743-10.344 13.597-2.62 4.644-3.366 9.544-2.182 14.234l-7.974 4.662-.993-1.774a3.305 3.305 0 0 0-4.524-1.266l-3.959 2.262c-1.592.91-2.154 2.96-1.253 4.569l11.636 20.764a3.318 3.318 0 0 0 2.895 1.701c.553 0 1.114-.14 1.629-.435l3.957-2.262c1.594-.911 2.156-2.961 1.255-4.57l-1.204-2.147 2.403-1.402 18.07 4.889c1.02.277 2.02.415 3 .415 1.952 0 3.818-.548 5.574-1.641l25.598-15.918c2.33-1.449 3.069-5.1 1.551-7.66Zm-45.379-42.17a1.884 1.884 0 0 1 2.902-1.601 2.791 2.791 0 0 0 2.632.236 2.835 2.835 0 0 0 1.694-2.046 1.906 1.906 0 0 1 1.843-1.503c.88 0 1.655.632 1.843 1.503.202.935.82 1.68 1.695 2.046.875.366 1.834.28 2.63-.237a1.884 1.884 0 0 1 2.904 1.602c0 .511-.195.989-.548 1.346l-4.621 4.666h-7.805L60.162 36.8a1.896 1.896 0 0 1-.548-1.346Zm2.28 8.521h13.582c.993 0 1.801.818 1.801 1.821 0 1.003-.808 1.82-1.8 1.82H61.893a1.812 1.812 0 0 1-1.8-1.821c0-1.002.808-1.82 1.8-1.82Zm-10.22 20.47c2.233-3.963 5.764-8.522 11.088-14.32h11.847c5.323 5.798 8.854 10.358 11.088 14.32 3.378 5.992 3.182 12.424-.526 17.69l-6.04 3.554a7.75 7.75 0 0 1-2.201.89c.282-.454.505-.97.656-1.539.72-2.714-.877-5.547-3.637-6.45a1.188 1.188 0 0 0-.162-.04 35.445 35.445 0 0 1-.863-.17c.448-.287.842-.62 1.164-.996.833-.974 1.188-2.194 1.028-3.53-.491-4.082-4.843-4.804-6.273-5.04-3.61-.6-3.683-2.108-3.71-2.677-.079-1.644 1.25-2.54 2.52-2.831.298-.068.608-.108.922-.117.045.003.089.002.132 0 1.44.004 2.929.684 3.624 2.355.266.639.994.94 1.627.671a1.26 1.26 0 0 0 .664-1.643c-.95-2.288-2.826-3.448-4.752-3.783v-1.205a1.25 1.25 0 0 0-1.243-1.254c-.686 0-1.242.562-1.242 1.254V60.8a5.357 5.357 0 0 0-.282.059c-2.787.637-4.577 2.808-4.452 5.4.09 1.872 1.167 4.265 5.79 5.031 3.493.58 4.084 1.837 4.208 2.867.075.632-.069 1.15-.44 1.585-1.274 1.486-3.874 1.612-5.569.894-.779-.331-1.759-1.005-2.092-2.353a1.242 1.242 0 0 0-1.506-.915 1.257 1.257 0 0 0-.906 1.523l.045.162c-.993-.362-1.928-.7-2.735-.965-3.607-1.181-6.87.283-9.586 1.87l-.277.162c-.78-3.84-.07-7.844 2.09-11.675Zm-4.152 39.029-3.958 2.261a.84.84 0 0 1-1.136-.318L30.792 84.654a.858.858 0 0 1 .315-1.148l3.958-2.263a.844.844 0 0 1 1.136.318l11.636 20.765a.86.86 0 0 1-.315 1.148Zm54.617-20.328-25.597 15.92c-2.034 1.263-4.263 1.579-6.629.939L51.346 94.98a1.232 1.232 0 0 0-.944.125l-2.83 1.651-6.99-12.473 10.524-6.153c2.354-1.377 4.902-2.53 7.574-1.654a101.4 101.4 0 0 1 2.99 1.059c3.28 1.199 7.356 2.686 11.586 3.468 1.48.521 2.306 1.964 1.93 3.387-.497 1.871-2.042 2.104-3.269 1.962-2.079-.431-4.053-1.001-6.143-1.603-.99-.286-2.015-.582-3.068-.867a1.243 1.243 0 0 0-1.522.888 1.258 1.258 0 0 0 .879 1.537c1.033.28 2.048.572 3.03.855 2.152.621 4.185 1.207 6.374 1.66l1.804.296c2.62.424 4.946.011 7.11-1.26l14.105-8.298c4.065-2.39 7.196-2.632 8.374-.647.812 1.37.448 3.506-.721 4.233Zm-65.922 2.116a1.426 1.426 0 0 1-1.193 1.618 1.416 1.416 0 0 1-1.603-1.206 1.425 1.425 0 0 1 1.194-1.619 1.415 1.415 0 0 1 1.602 1.207Z" clip-rule="evenodd"/></g><defs><filter id="a" width="140.8" height="140.8" x=".6" y=".6" color-interpolation-filters="sRGB" filterUnits="userSpaceOnUse"><feFlood flood-opacity="0" result="BackgroundImageFix"/><feColorMatrix in="SourceAlpha" result="hardAlpha" values="0 0 0 0 0 0 0 0 0 0 0 0 0 0 0 0 0 0 127 0"/><feOffset dx="4" dy="3"/><feGaussianBlur stdDeviation="5.7"/><feComposite in2="hardAlpha" operator="out"/><feColorMatrix values="0 0 0 0 0.128333 0 0 0 0 0.119778 0 0 0 0 0.119778 0 0 0 0.25 0"/><feBlend in2="BackgroundImageFix" result="effect1_dropShadow_5335_2928"/><feBlend in="SourceGraphic" in2="effect1_dropShadow_5335_2928" result="shape"/></filter></defs></svg>
